X: 1
T: Mrs Ryan's
M: 2/4
L: 1/8
R: polka
K: Gmaj
DG BG | dG BG | FG AB | cE FE |
DG BG | dG BG | FG AB | cF G2 :|
|: g2 fe | dB B2 | cA A2 | ed de/f/ |
g2 fe |dB B2 | cA FG | AG G2 :|
